src/static/logos/frontapp.svg

<?xml version="1.0" encoding="UTF-8" standalone="no"?>
<svg width="256px" height="217px" viewBox="0 0 256 217" version="1.1" xmlns="http://www.w3.org/2000/svg" xmlns:xlink="http://www.w3.org/1999/xlink" preserveAspectRatio="xMidYMid">
    <g>
        <path d="M219.171752,0 L148.091954,0 C147.355754,0 146.645661,0.268895553 146.092206,0.754473929 L130.000243,12.1812296 C128.854174,13.183714 127.144207,13.183714 126.000748,12.1812296 L109.908785,0.754473929 C109.35533,0.268895553 108.645237,0 107.909038,0 L36.8292396,0 C35.9886147,0 35.1793174,0.344604009 34.6049774,0.958103571 C13.252582,23.7306852 0.134133921,54.3169016 0.00099146343,87.9653946 C-0.273125362,157.810362 56.3280831,215.492374 126.167829,216.468752 C197.699267,217.468625 256,159.784003 256,88.4823006 C256,54.6275673 242.855446,23.8481638 221.393403,0.958103571 C220.819063,0.344604009 220.012377,0 219.171752,0 L219.171752,0 L219.171752,0 Z M191.585157,32.9462318 C204.565241,47.7903105 212.444142,67.2108349 212.444142,88.4823006 C212.444142,136.6381 172.133305,175.377334 123.418829,172.803247 C79.9804492,170.508497 45.1153996,134.951629 43.6090624,91.4793112 C42.8310928,69.0435017 50.8248615,48.4925717 64.4080029,32.951453 C65.4496468,31.7583922 65.3739384,29.9596637 64.256586,28.8397007 L38.118894,2.61846834 L124.196798,64.3861263 C126.41845,66.1718016 129.582541,66.1718016 131.804193,64.3861263 L217.824663,2.67590234 L191.744405,28.83709 C190.629664,29.9570531 190.546123,31.7557816 191.585157,32.9462318 L191.585157,32.9462318 L191.585157,32.9462318 Z" fill="#FF6B6B"></path>
    </g>
</svg>

<svg width="256" height="217" xmlns="http://www.w3.org/2000/svg" preserveAspectRatio="xMidYMid"><path d="M219.172 0h-71.08c-.736 0-1.446.269-2 .754L130 12.181a3.035 3.035 0 01-4 0L109.91.754a3.032 3.032 0 00-2-.754H36.83c-.84 0-1.65.345-2.224.958C13.253 23.731.135 54.317.001 87.965-.273 157.81 56.328 215.492 126.168 216.47 197.699 217.469 256 159.784 256 88.482c0-33.854-13.145-64.634-34.607-87.524A3.043 3.043 0 00219.172 0zm-27.587 32.946c12.98 14.844 20.86 34.265 20.86 55.536 0 48.156-40.312 86.895-89.026 84.321-43.439-2.295-78.304-37.851-79.81-81.324-.778-22.435 7.216-42.986 20.799-58.528 1.042-1.193.966-2.991-.151-4.111L38.119 2.618l86.078 61.768a6.071 6.071 0 007.607 0l86.02-61.71-26.08 26.161c-1.114 1.12-1.198 2.919-.159 4.11z" fill="#FF6B6B"/></svg>
